svgs/thin/hand-back-point-left.svg

<svg xmlns="http://www.w3.org/2000/svg" viewBox="0 0 512 512"><!--! Font Awesome Pro 6.3.0 by @fontawesome - https://fontawesome.com License - https://fontawesome.com/license (Commercial License) Copyright 2023 Fonticons, Inc. --><path d="M380.9 480h-102.8C248.3 480 224 455.7 224 425.8v-12.88c-19.38-9.094-32-27.97-32-48.66v-15.38c0-7.25 1.188-13.94 3.5-20.06C183.2 318.7 176 303.6 176 287.4V278.8C176 270.9 177.8 263.1 181.1 256H56C25.13 256 0 230.9 0 200S25.13 144 56 144h288C348.4 144 352 147.6 352 152S348.4 160 344 160h-288C33.94 160 16 177.9 16 200S33.94 240 56 240h139.1c5.328 0 8.017 4.521 8.017 7.996C203.1 255.1 192 259.3 192 278.8v8.594c0 13.06 6.656 25.09 17.81 32.19c2.408 1.515 3.713 4.079 3.713 6.729c0 4.993-5.526 7.861-5.526 22.65v15.38c0 15.59 11.06 30.34 26.91 35.84c3.12 1.078 5.417 4.01 5.417 7.136c0 .3179-.0237 .6378-.0728 .9579c0 0-.25 2.281-.25 2.312v15.28C240 446.9 257.1 464 278.2 464h102.8C444.4 464 496 412.4 496 348.9V226.3c0-19.09-4.812-38.09-13.94-54.91L447.6 108C438.3 90.72 420.2 80 400.6 80h-77.44c-16.34 0-31.59 7.312-41.81 20.09l-11.06 13.84c-1.575 1.969-3.899 2.995-6.249 2.995c-4.635 0-8.018-3.791-8.018-8.008c0-1.753 .5778-3.516 1.768-4.987l11.06-13.84C282.1 73.5 301.9 64 323.1 64h77.44c25.56 0 48.97 13.94 61.13 36.38l34.44 63.41C506.5 182.9 512 204.6 512 226.3v122.6C512 421.2 453.2 480 380.9 480z"/></svg>

<svg xmlns="http://www.w3.org/2000/svg" viewBox="0 0 512 512"><!-- Font Awesome Pro 6.0.0-alpha2 by @fontawesome - https://fontawesome.com License - https://fontawesome.com/license (Commercial License) --><path d="M380.938 480H278.156C248.281 480 224 455.719 224 425.844V412.969C204.625 403.875 192 385 192 364.312V348.937C192 341.687 193.188 335 195.5 328.875C183.188 318.656 176 303.594 176 287.375V278.781C176 270.875 177.781 263.125 181.125 256H56C25.125 256 0 230.875 0 200S25.125 144 56 144H344C348.406 144 352 147.594 352 152S348.406 160 344 160H56C33.938 160 16 177.938 16 200S33.938 240 56 240H195.969C201.297 240 203.986 244.521 203.986 247.996C203.986 255.137 192 259.291 192 278.781V287.375C192 300.438 198.656 312.469 209.812 319.563C212.221 321.078 213.526 323.642 213.526 326.291C213.526 331.284 208 334.153 208 348.938V364.313C208 379.906 219.062 394.656 234.906 400.156C238.026 401.234 240.323 404.166 240.323 407.292C240.323 407.61 240.299 407.93 240.25 408.25C240.25 408.25 240 410.531 240 410.563V425.844C240 446.875 257.125 464 278.156 464H380.938C444.375 464 496 412.375 496 348.938V226.312C496 207.219 491.188 188.219 482.062 171.406L447.625 108C438.281 90.719 420.219 80 400.562 80H323.125C306.781 80 291.531 87.312 281.312 100.094L270.25 113.938C268.675 115.907 266.351 116.932 264.001 116.932C259.366 116.932 255.982 113.142 255.982 108.924C255.982 107.171 256.56 105.408 257.75 103.938L268.812 90.094C282.094 73.5 301.906 64 323.125 64H400.562C426.125 64 449.531 77.938 461.687 100.375L496.125 163.781C506.5 182.938 512 204.562 512 226.312V348.937C512 421.219 453.219 480 380.938 480Z"/></svg>
